X:1
T: Guardian Angels
N:
C:
S:
A:
O:
R:
M:4/4
K:A
I:speed 200
%W: A1
% voice 1 (1 lines, 29 notes)
K:A
M:4/4
L:1/16
A8 c4 e4 |d4 B4 G4 E4 |A4 c4 B4 A4 |G4 F4 E8 |A4 E4 A4 c4 |B4 E4 B4 d4 |c6 d e d4 c4 |c8 B8 |
%W:
% voice 1 (1 lines, 28 notes)
A8 c4 e4 |d4 B4 G4 E4 |A6 B c B4 A4 |G4 F4 E8 |A8 B4 c4 |F8 d6 e f |e4 c4 d4 B4 |A8 A,8 |
%W: A2
% voice 1 (1 lines, 29 notes)
A8 c4 e4 |d4 B4 G4 E4 |A4 c4 B4 A4 |G4 F4 E8 |A4 E4 A4 c4 |B4 E4 B4 d4 |c6 d e d4 c4 |c8 B8 |
%W:
% voice 1 (1 lines, 28 notes)
A8 c4 e4 |d4 B4 G4 E4 |A6 B c B4 A4 |G4 F4 E8 |A8 B4 c4 |F8 d6 e f |e4 c4 d4 B4 |A8 A,8 |
%W: B1
% voice 1 (1 lines, 25 notes)
e8 a6 f2 |e12 e4 |e4 d4 d4 c4 |c8 B8 |e4 c4 e4 c4 |d4 B4 d4 B4 |e4 c4 a4 c4 |c8 B8 |
%W:
% voice 1 (1 lines, 29 notes)
A8 e4 c4 |a4 e4 c4 A4 |E8 B4 d4 |c4 A4 E4 C4 |F8 G6 A2 |E4 A4 d4 f4 |e4 c4 d2 c2 B2 A2 |A8 A,8 |
%W: B2
% voice 1 (1 lines, 25 notes)
e8 a6 f2 |e12 e4 |e4 d4 d4 c4 |c8 B8 |e4 c4 e4 c4 |d4 B4 d4 B4 |e4 c4 a4 c4 |c8 B8 |
%W:
% voice 1 (1 lines, 29 notes)
A8 e4 c4 |a4 e4 c4 A4 |E8 B4 d4 |c4 A4 E4 C4 |F8 G6 A2 |E4 A4 d4 f4 |e4 c4 d2 c2 B2 A2 |A8 A,8 ||
